X:1
T:Title
L:1/8
M:4/4
I:linebreak $
K:D
V:1 treble nm="Voice"
V:1
"D" AF D2 DEFG | AFAc d2 Ac |"Em" BG E2 EFGA | BE E2 EFGB |"D" AF D2 DEFG | AFAc d2 ef | %6
"G" g2 Pf2"A" ed c2 |1"D" d6 dB :|2"D" d6 e2 |:"D" f2 fg fede | faab afdf |"A" ec A2 ABcd | %12
 edcB A2 e2 |"D" f3 g fede | faab afdf |"G" g2 Pf2"A" ed c2 |1"D" d6 e2 :|2"D" d6 dB |] %18
